X: 12525
T: Farewell To Ireland
R: reel
M: 4/4
K: Edorian
|:E3G B3c|dBAF DFAF|E3G B3c|dBAF BEED|
E3G B3c|dBAF A2 d2|BABd e2 fe|dBAF FE E2:|
|:e3d edBc|d3e dBAB|e3f edBc|dBAF FE E2|
edBc dedB|A3F DEFA|(3GFE FE FABc|dBAF FE E2:|
|:BEFE BEFE|A3F DEFA|BEFE BEEc|dBAF FE E2|
BEFE BEFE|A3F DEFA|(3GFE FE FABc|dBAF FE E2:|
|:eBGB eBGB|dAFA dAFA|eBGB e3c|dBAF FE E2|
edBc d3B|A3F DEFA|(3GFE FE FABc|dBAF FE E2:|

